flaticon/army-badges/medal-7.svg

<svg xmlns="http://www.w3.org/2000/svg" width="32" height="32" viewBox="0 0 24 24">
    <path d="M 16.859375 7 C 16.941406 6.878906 16.941406 6.71875 16.859375 6.601562 C 16.78125 6.480469 16.660156 6.398438 16.5 6.398438 L 7.421875 6.398438 C 7.300781 6.398438 7.179688 6.480469 7.101562 6.601562 C 7.019531 6.71875 7.019531 6.878906 7.101562 7 L 11.621094 15.601562 C 11.699219 15.71875 11.820312 15.800781 11.980469 15.800781 C 12.140625 15.800781 12.261719 15.71875 12.339844 15.601562 Z M 11.980469 14.519531 L 8.101562 7.199219 L 15.859375 7.199219 Z M 11.980469 14.519531"/>
    <path d="M 23.941406 5.039062 C 23.859375 4.921875 23.738281 4.839844 23.578125 4.839844 L 19.359375 4.839844 C 19.308594 4.816406 19.246094 4.800781 19.179688 4.800781 L 4.78125 4.800781 C 4.710938 4.800781 4.652344 4.816406 4.601562 4.839844 L 0.378906 4.839844 C 0.21875 4.839844 0.101562 4.921875 0.0585938 5.078125 C -0.0195312 5.199219 -0.0195312 5.359375 0.0585938 5.480469 L 1.660156 7.878906 L 3.261719 10.28125 C 3.28125 10.300781 3.300781 10.320312 3.328125 10.339844 C 4.328125 11.800781 5.820312 12.683594 7.578125 12.800781 L 8.335938 12.800781 L 11.621094 19 C 11.699219 19.121094 11.820312 19.199219 11.980469 19.199219 C 12.140625 19.199219 12.261719 19.121094 12.339844 19 L 15.621094 12.800781 L 16.417969 12.800781 C 18.21875 12.679688 19.738281 11.761719 20.738281 10.238281 L 23.941406 5.441406 C 24.019531 5.320312 24.019531 5.160156 23.941406 5.039062 Z M 4.539062 5.640625 L 5.378906 7.238281 L 2.179688 7.238281 L 1.140625 5.640625 Z M 5.816406 8.039062 L 6.101562 8.574219 L 6.660156 9.640625 L 3.78125 9.640625 L 2.738281 8.039062 Z M 7.578125 12 C 6.339844 11.921875 5.21875 11.359375 4.378906 10.441406 L 7.058594 10.441406 L 7.898438 12 Z M 11.980469 17.960938 L 9.039062 12.382812 C 9.035156 12.320312 9.015625 12.253906 8.980469 12.199219 L 7.738281 9.839844 C 7.710938 9.796875 7.679688 9.761719 7.640625 9.730469 L 7.390625 9.261719 L 5.460938 5.601562 L 18.5 5.601562 L 16.566406 9.261719 L 16.261719 9.839844 C 16.246094 9.859375 16.238281 9.878906 16.230469 9.898438 L 15.410156 11.453125 L 14.996094 12.246094 C 14.996094 12.246094 14.992188 12.246094 14.992188 12.246094 Z M 16.378906 12 L 16.046875 12 L 16.441406 11.253906 L 16.898438 10.441406 L 19.578125 10.441406 C 18.738281 11.359375 17.621094 11.921875 16.378906 12 Z M 20.179688 9.640625 L 17.300781 9.640625 L 18.179688 8.039062 L 21.261719 8.039062 Z M 21.78125 7.238281 L 18.578125 7.238281 L 19.421875 5.640625 L 22.859375 5.640625 Z M 21.78125 7.238281"/>
</svg>

<svg xmlns="http://www.w3.org/2000/svg" width="32" height="32" viewBox="0 0 24 24">
    <path d="M16.86 7a.353.353 0 0 0 0-.398.417.417 0 0 0-.36-.204H7.422c-.121 0-.242.082-.32.204a.353.353 0 0 0 0 .398l4.52 8.602a.422.422 0 0 0 .718 0zm-4.88 7.52L8.102 7.2h7.757zm0 0"/>
    <path d="M23.941 5.04a.434.434 0 0 0-.363-.2H19.36a.434.434 0 0 0-.18-.04H4.782a.42.42 0 0 0-.18.04H.38c-.16 0-.277.082-.32.238a.375.375 0 0 0 0 .402L1.66 7.88l1.602 2.402c.02.02.039.04.066.059 1 1.46 2.492 2.344 4.25 2.46h.758L11.62 19c.078.121.2.2.36.2.16 0 .28-.079.359-.2l3.281-6.2h.797c1.8-.12 3.32-1.038 4.32-2.562l3.203-4.797a.375.375 0 0 0 0-.402zm-19.402.6l.84 1.598h-3.2L1.142 5.641zm1.277 2.4l.286.534.558 1.067H3.781L2.738 8.039zM7.578 12c-1.238-.078-2.36-.64-3.2-1.559h2.68L7.899 12zm4.402 5.96l-2.94-5.577a.391.391 0 0 0-.06-.184L7.738 9.84a.436.436 0 0 0-.097-.109l-.25-.468-1.93-3.66H18.5l-1.934 3.66-.304.578a.214.214 0 0 0-.032.058l-.82 1.555-.414.793h-.004zM16.38 12h-.332l.394-.746.457-.813h2.68c-.84.918-1.957 1.48-3.2 1.559zm3.8-2.36h-2.878l.879-1.6h3.082zm1.602-2.402h-3.203l.844-1.597h3.437zm0 0"/>
</svg>
